src/icons/icons_set_02/015-horloge.svg

<svg height="50" viewBox="0 0 50 50" width="50" xmlns="http://www.w3.org/2000/svg"><path d="m24.105662 22.9265813 8.8164987 9.4466487-1.6804 1.7280113-10.6649387-9.4830573-.193246-1.4927553.7589807-14.24979203h2.2153273zm17.7559027.0784187c0-5.0010719-1.9866681-9.7973129-5.52296-13.33360475-3.5362918-3.53629184-8.3325328-5.52295992-13.3336047-5.52295992-10.4141931 0-18.85656467 8.44237157-18.85656467 18.85656467 0 10.414193 8.44237157 18.8565647 18.85656467 18.8565647 10.414193 0 18.8565647-8.4423717 18.8565647-18.8565647zm4 0c0 12.623332-10.2332327 22.8565647-22.8565647 22.8565647-12.6233321 0-22.85656467-10.2332327-22.85656467-22.8565647 0-12.6233321 10.23323257-22.85656467 22.85656467-22.85656467 6.0619379 0 11.8755946 2.40809545 16.1620319 6.6945328 4.2864373 4.28643737 6.6945328 10.10009407 6.6945328 16.16203187z" transform="translate(1.995 1.995)"/></svg>

<?xml version="1.0" encoding="UTF-8"?>
<svg width="50px" height="50px" viewBox="0 0 50 50" version="1.1" xmlns="http://www.w3.org/2000/svg" xmlns:xlink="http://www.w3.org/1999/xlink">
    <!-- Generator: Sketch 52.2 (67145) - http://www.bohemiancoding.com/sketch -->
    <title>015-horloge</title>
    <desc>Created with Sketch.</desc>
    <g id="015-horloge" stroke="none" stroke-width="1" fill="none" fill-rule="evenodd">
        <g id="Group" transform="translate(1.995000, 1.995000)" fill="#000000" fill-rule="nonzero">
            <g id="013-horloge">
                <g id="ICONSET-01">
                    <g id="013-horloge">
                        <path d="M24.105662,22.9265813 L32.9221607,32.37323 L31.2417607,34.1012413 L20.576822,24.618184 L20.383576,23.1254287 L21.1425567,8.87563667 L23.357884,8.87563667 L24.105662,22.9265813 Z M41.8615647,23.005 C41.8615647,18.0039281 39.8748966,13.2076871 36.3386047,9.67139525 C32.8023129,6.13510341 28.0060719,4.14843533 23.005,4.14843533 C12.5908069,4.14843533 4.14843533,12.5908069 4.14843533,23.005 C4.14843533,33.419193 12.5908069,41.8615647 23.005,41.8615647 C33.419193,41.8615647 41.8615647,33.419193 41.8615647,23.005 Z M45.8615647,23.005 C45.8615647,35.628332 35.628332,45.8615647 23.005,45.8615647 C10.3816679,45.8615647 0.148435333,35.628332 0.148435333,23.005 C0.148435333,10.3816679 10.3816679,0.148435333 23.005,0.148435333 C29.0669379,0.148435333 34.8805946,2.55653078 39.1670319,6.84296813 C43.4534692,11.1294055 45.8615647,16.9430622 45.8615647,23.005 Z" id="Combined-Shape"></path>
                    </g>
                </g>
            </g>
        </g>
    </g>
</svg>
